X:360
T:Powder Creek
C:
N:Arranged By Mike Stangeland
R:bluegrass
L:1/8
Q:1/4=222
M:4/4
K:G
z6 B,D |: "Em"E2 B,E G2 EG | B2 GB d2 Bd | de ee e2 d2 | {A}"G"B2 [BD][BD] [B2D2] AB | 
"C"Bc z2 [e4e4] | "D"DF A^c d2 d=c | "Em"BA GB AG FE | "B7"^D2 B,4 B,=D | "Em"E2 B,E G2 EG | 
B2 GB d2 Bd | de ee e2 d2 | {A}"G"B2 BB B2 AB | "C"Bc cd e2 c2 | "B7"AB Bc BA GF | 
"Em"E2 [EB,][EB,] [EB,][EB,] [EB,][EB,] | [E2B,2] B,D EG AB | ed Be ge dg | bg af gf ed | 
ed Be ge dg | bg af gf ed | "C"[e4c4] [e4e4] | "D"DF A^c d2 d=c | "Em"BA GB AG FE | 
"B7"^D2 B,4 AB | "Em"ed Be ge dg | bg af gf ed | ed Be ge dg | bg af gf ed | "C"Bc cd e2 c2 | 
"B7"AB Bc BA GF | "Em"E2 [EB,][EB,] [EB,][EB,] [EB,][EB,] |1 [E2B,2] (3BdB AG FA :|2 [E8B,8] | 
z8 | 


